actions/24/media-album-cover-manager-amarok.svg

<svg xmlns="http://www.w3.org/2000/svg" viewBox="0 0 24 24" width="24" height="24">
  <defs id="defs3051">
    <style type="text/css" id="current-color-scheme">.ColorScheme-Text {color:#fcfcfc;}</style>
  </defs>
  <g transform="translate(1,1)">
    <path style="fill:currentColor;fill-opacity:1;stroke:none" d="m 2,5 c 0,2 0,10 0,12 0,2 2,2 2,2 h 14 c 0,0 2,0 2,-2 C 20,15 20,7 20,5 20,3 18,3 18,3 H 4 C 4,3 2,3 2,5 Z M 3,5 C 3,4 4,4 4,4 V 18 C 4,18 3,18 3,17 3,16 3,6 3,5 Z M 5,4 H 6 C 6,4.5522847 6.4477153,5 7,5 7.5522847,5 8,4.5522847 8,4 h 4 4 c 0,0.5522847 0.447715,1 1,1 0.552285,0 1,-0.4477153 1,-1 0,0 1,0 1,1 0,1 0,6 0,6 0,0 0,5 0,6 0,1 -1,1 -1,1 0,-0.552285 -0.447715,-1 -1,-1 -0.552285,0 -1,0.447715 -1,1 H 12 8 C 8,17.447715 7.5522847,17 7,17 6.4477153,17 6,17.447715 6,18 H 5 v -7 z m 0,7 c 0,3.865993 3.1340068,7 7,7 3.865993,0 7,-3.134007 7,-7 C 19,7.1340068 15.865993,4 12,4 8.1340068,4 5,7.1340068 5,11 Z m 7,-6 c 3.313708,0 6,2.6862915 6,6 0,3.313708 -2.686292,6 -6,6 C 8.6862915,17 6,14.313708 6,11 6,7.6862915 8.6862915,5 12,5 Z m 0,5 c -0.552285,0 -1,0.447715 -1,1 0,0.552285 0.447715,1 1,1 0.552285,0 1,-0.447715 1,-1 0,-0.552285 -0.447715,-1 -1,-1 z" class="ColorScheme-Text"/>
  </g>
</svg>

<svg xmlns="http://www.w3.org/2000/svg" viewBox="0 0 24 24" width="24" height="24">
  <defs id="defs3051">
    <style type="text/css" id="current-color-scheme">
      .ColorScheme-Text {
        color:#eff0f1;
      }
      </style>
  </defs>
  <g transform="translate(1,1)">
    <path style="fill:currentColor;fill-opacity:1;stroke:none" d="M 2 3 L 2 19 L 3 19 L 20 19 L 20 3 L 3 3 L 2 3 z M 3 4 L 4 4 L 4 18 L 3 18 L 3 4 z M 5 4 L 6 4 A 1 1 0 0 0 7 5 A 1 1 0 0 0 8 4 L 12 4 L 16 4 A 1 1 0 0 0 17 5 A 1 1 0 0 0 18 4 L 19 4 L 19 11 L 19 18 L 18 18 A 1 1 0 0 0 17 17 A 1 1 0 0 0 16 18 L 12 18 L 8 18 A 1 1 0 0 0 7 17 A 1 1 0 0 0 6 18 L 5 18 L 5 11 L 5 4 z M 5 11 A 7 7 0 0 0 12 18 A 7 7 0 0 0 19 11 A 7 7 0 0 0 12 4 A 7 7 0 0 0 5 11 z M 12 5 A 6 6 0 0 1 18 11 A 6 6 0 0 1 12 17 A 6 6 0 0 1 6 11 A 6 6 0 0 1 12 5 z M 12 10 A 1 1 0 0 0 11 11 A 1 1 0 0 0 12 12 A 1 1 0 0 0 13 11 A 1 1 0 0 0 12 10 z " class="ColorScheme-Text"/>
  </g>
</svg>
